dist/images/next-icon.svg

<?xml version="1.0" encoding="UTF-8"?>
<svg width="66px" height="66px" viewBox="0 0 66 66" version="1.1" xmlns="http://www.w3.org/2000/svg" xmlns:xlink="http://www.w3.org/1999/xlink">
    <!-- Generator: Sketch 53.2 (72643) - https://sketchapp.com -->
    <title>Group</title>
    <desc>Created with Sketch.</desc>
    <defs>
        <linearGradient x1="50%" y1="0%" x2="50%" y2="100%" id="linearGradient-1">
            <stop stop-color="#61747B" offset="0%"></stop>
            <stop stop-color="#4C5769" offset="100%"></stop>
        </linearGradient>
        <linearGradient x1="50%" y1="0%" x2="50%" y2="100%" id="linearGradient-2">
            <stop stop-color="#6A7888" offset="0%"></stop>
            <stop stop-color="#3E4853" offset="100%"></stop>
        </linearGradient>
        <linearGradient x1="50%" y1="0%" x2="50%" y2="100%" id="linearGradient-3">
            <stop stop-color="#C5D6DE" offset="0%"></stop>
            <stop stop-color="#EBF1F2" offset="100%"></stop>
        </linearGradient>
        <path d="M19.229825,48.7524349 C19.9811815,49.1397679 20.8905644,49.0688061 21.5731502,48.5661602 L30.7942772,41.8011383 L30.7942772,46.7255894 C30.7942772,47.5808265 31.2690877,48.3643627 32.0233707,48.7524349 C32.7747272,49.1397679 33.68411,49.0688061 34.3674274,48.5661602 L53.0723271,34.8402322 C53.6554149,34.4137224 54,33.7284979 54,33.0011397 C54,32.2730424 53.6568781,31.5892962 53.0723271,31.1605688 L34.3674274,17.4339016 C33.9767513,17.1463586 33.51072,17 33.0446888,17 C32.6949824,17 32.3452761,17.0805712 32.0233707,17.247627 C31.2698193,17.6356992 30.7942772,18.4184962 30.7942772,19.2729942 L30.7942772,24.1996628 L21.5731502,17.4339016 C21.1832056,17.1463586 20.7171744,17 20.2511431,17 C19.9007052,17 19.5517304,17.0805712 19.229825,17.247627 C18.4755421,17.6356992 18,18.4184962 18,19.2729942 L18,46.7263285 C18,47.5808265 18.4755421,48.3636235 19.229825,48.7524349 L19.229825,48.7524349 Z" id="path-4"></path>
        <filter x="-5.6%" y="-9.4%" width="111.1%" height="112.5%" filterUnits="objectBoundingBox" id="filter-5">
            <feOffset dx="0" dy="-1" in="SourceAlpha" result="shadowOffsetOuter1"></feOffset>
            <feGaussianBlur stdDeviation="0.5" in="shadowOffsetOuter1" result="shadowBlurOuter1"></feGaussianBlur>
            <feColorMatrix values="0 0 0 0 0   0 0 0 0 0   0 0 0 0 0  0 0 0 0.15 0" type="matrix" in="shadowBlurOuter1"></feColorMatrix>
        </filter>
        <filter x="-8.3%" y="-12.5%" width="116.7%" height="118.8%" filterUnits="objectBoundingBox" id="filter-6">
            <feGaussianBlur stdDeviation="1" in="SourceAlpha" result="shadowBlurInner1"></feGaussianBlur>
            <feOffset dx="0" dy="2" in="shadowBlurInner1" result="shadowOffsetInner1"></feOffset>
            <feComposite in="shadowOffsetInner1" in2="SourceAlpha" operator="arithmetic" k2="-1" k3="1" result="shadowInnerInner1"></feComposite>
            <feColorMatrix values="0 0 0 0 0   0 0 0 0 0   0 0 0 0 0  0 0 0 0.15 0" type="matrix" in="shadowInnerInner1"></feColorMatrix>
        </filter>
    </defs>
    <g id="Page-1" stroke="none" stroke-width="1" fill="none" fill-rule="evenodd">
        <g id="controls" transform="translate(-194.000000, -10.000000)">
            <g id="Group" transform="translate(194.000000, 10.000000)">
                <circle id="Oval-2" stroke="url(#linearGradient-2)" fill="url(#linearGradient-1)" cx="33" cy="33" r="32.5"></circle>
                <g id="Shape">
                    <use fill="black" fill-opacity="1" filter="url(#filter-5)" xlink:href="#path-4"></use>
                    <use fill="url(#linearGradient-3)" fill-rule="evenodd" xlink:href="#path-4"></use>
                    <use fill="black" fill-opacity="1" filter="url(#filter-6)" xlink:href="#path-4"></use>
                </g>
            </g>
        </g>
    </g>
</svg>

<svg width="66" height="66" xmlns="http://www.w3.org/2000/svg" xmlns:xlink="http://www.w3.org/1999/xlink"><defs><linearGradient x1="50%" y1="0%" x2="50%" y2="100%" id="b"><stop stop-color="#61747B" offset="0%"/><stop stop-color="#4C5769" offset="100%"/></linearGradient><linearGradient x1="50%" y1="0%" x2="50%" y2="100%" id="a"><stop stop-color="#6A7888" offset="0%"/><stop stop-color="#3E4853" offset="100%"/></linearGradient><linearGradient x1="50%" y1="0%" x2="50%" y2="100%" id="e"><stop stop-color="#C5D6DE" offset="0%"/><stop stop-color="#EBF1F2" offset="100%"/></linearGradient><filter x="-5.6%" y="-9.4%" width="111.1%" height="112.5%" filterUnits="objectBoundingBox" id="c"><feOffset dy="-1" in="SourceAlpha" result="shadowOffsetOuter1"/><feGaussianBlur stdDeviation=".5" in="shadowOffsetOuter1" result="shadowBlurOuter1"/><feColorMatrix values="0 0 0 0 0 0 0 0 0 0 0 0 0 0 0 0 0 0 0.15 0" in="shadowBlurOuter1"/></filter><filter x="-8.3%" y="-12.5%" width="116.7%" height="118.8%" filterUnits="objectBoundingBox" id="f"><feGaussianBlur stdDeviation="1" in="SourceAlpha" result="shadowBlurInner1"/><feOffset dy="2" in="shadowBlurInner1" result="shadowOffsetInner1"/><feComposite in="shadowOffsetInner1" in2="SourceAlpha" operator="arithmetic" k2="-1" k3="1" result="shadowInnerInner1"/><feColorMatrix values="0 0 0 0 0 0 0 0 0 0 0 0 0 0 0 0 0 0 0.15 0" in="shadowInnerInner1"/></filter><path d="M19.23 48.752a2.23 2.23 0 002.343-.186l9.221-6.765v4.925c0 .855.475 1.638 1.23 2.026.75.388 1.66.317 2.343-.186L53.072 34.84A2.279 2.279 0 0054 33.001a2.28 2.28 0 00-.928-1.84L34.367 17.434a2.233 2.233 0 00-2.344-.186 2.277 2.277 0 00-1.229 2.025V24.2l-9.22-6.766a2.229 2.229 0 00-2.344-.186A2.277 2.277 0 0018 19.273v27.453c0 .855.476 1.638 1.23 2.026z" id="d"/></defs><g fill="none" fill-rule="evenodd"><circle stroke="url(#a)" fill="url(#b)" cx="33" cy="33" r="32.5"/><use fill="#000" filter="url(#c)" xlink:href="#d"/><use fill="url(#e)" xlink:href="#d"/><use fill="#000" filter="url(#f)" xlink:href="#d"/></g></svg>
